T: Johnny's Wedding
M: 4/4
L: 1/8
K: Gmin
GA|BGdG BGGB|AFcF AFFA|BGdG BGGB|AF (3D=E^F G2 GA|!BGdG BGGB|AFcF AFFA|GBAc Bdce|dg^fa g2:|!|:ga|bgag fdd=e|fdcB AFFA|bgag fddc|dg^fa g2 ga|!bgag fdd=e|fdcB AFFA|GBAc Bdce|dg^fa g2:|
